X:1
T:Stand Up, 76.76 D
T:Stand Up, 76.76 D
T:Joseph Barnby, 1889
T:Public Domain Courtesy of the Cyber Hymnal™
C:Joseph Barnby, 1889
Z:Public Domain
Z:Courtesy of the Cyber Hymnal™
%%score ( 1 2 ) ( 3 4 )
L:1/8
Q:1/4=115
M:none
K:C
V:1 treble 
V:2 treble 
V:3 bass 
V:4 bass 
V:1
 G2 | [EG]2 G2 [Fc]2 [Fd]2 | [Ee]4 [Gc]2 [FA]2 | [EG]2 [Gc]2 [Gc]2 [GB]2 | [Gc]6 [Gc]2 | %5
 [^Fd]3 [Fd] [Gd]2 [Fc]2 | B4 [Be]2 [Ae]2 | [Dd]2 [EG]2 [Ec]2 [^Fc]2 | [GB]6 [DB]2 | %9
 [EA]3 [EA] [DA]2 [Dd]2 | [Gd]4 G2 G2 | [Gc]2 [Ec]2 [F_B]2 [GB]2 | [FA]6 [FA]2 | %13
 [GB]2 G2 [GA]2 [FB]2 | c4 [^Fd]2 [Fd]2 | [Ge]4 [Gc]4 | c4 z2 x6 | [Ec]6 |] %18
V:2
 G2 | x2 G2 x4 | x8 | x8 | x8 | x8 | (G2 B2) x4 | x8 | x8 | x8 | x4 G2 G2 | x8 | x8 | x2 G2 x4 | %14
 (G2 E2) x4 | x8 | G6 (B4 F2) | x6 |] %18
V:3
 G,2 | C2 [B,D]2 [A,C]2 [G,B,]2 | C4 [E,C]2 [F,C]2 | [G,C]2 (DE) [G,D]2 [G,F]2 | [C,E]6 [CE]2 | %5
 [CD]3 [CD] [B,D]2 [A,D]2 | [G,D]4 [C,D]2 [C,C]2 | [D,B,]2 (CB,) [D,A,]2 [D,D]2 | [G,D]6 [G,B,]2 | %9
 [G,C]3 [G,C] [F,D]2 [F,A,]2 | [F,B,]4 [F,B,]2 [F,B,]2 | [E,C]2 [C,E]2 [D,D]2 [E,C]2 | %12
 [F,C]6 [F,C]2 | D2 z [E,C]2 [D,D]2 x | ([E,C]2 [C,E]2) [A,,D]2 [D,C]2 | [G,,C]4 (D2 E2) | %16
 [G,D]4 [G,,G,]4 x4 | [C,G,]6 |] %18
V:4
 G,2 | C2 x6 | C4 x4 | x2 G,2 x4 | x8 | x8 | x8 | x2 D,2 x4 | x8 | x8 | x8 | x8 | x8 | %13
 F,3 (B,2 F,) x2 | x8 | x4 G,4 | x12 | x6 |] %18

